**kern	**dynam	**kern	**dynam	**kern	**dynam	**kern	**dynam	**mxhm
*part4	*part4	*part3	*part3	*part2	*part2	*part1	*part1	*part1
*staff4	*	*staff3	*	*staff2	*	*staff1	*	*
*I"Cello	*	*I"Viola	*	*I"2nd Violin	*	*I"1st Violin	*	*
*clefF4	*	*clefC3	*	*clefG2	*	*clefG2	*	*
*k[f#c#g#d#]	*	*k[f#c#g#d#]	*	*k[f#c#g#d#]	*	*k[f#c#g#d#]	*	*
*E:	*	*E:	*	*E:	*	*E:	*	*
*M3/8	*	*M3/8	*	*M3/8	*	*M3/8	*	*
=1	=1	=1	=1	=1	=1	=1	=1	=1
!	!	!	!	!	!	!LO:TX:a:B:t=Alla danza tedesca	!	!
!	!	!	!LO:DY:a	!	!LO:DY:a	!LO:TX:a:B:t=Allegro assai	!	!
4E	p <	(8EL	p p <	(8G#L	p <	(8bL	<	.G.I
.	.	8G#	>	8B	>	8g#	>	.
8r	[ > ]]	8EJ)	] ]]	8G#J)	] ]]	16bJk)	]	.
.	.	.	.	.	.	16r	]]	.
=2	=2	=2	=2	=2	=2	=2	=2	=2
4c#	p	(8G#L	p	(8c#L	p	4.e	p	vi
.	.	8C#	.	8E	.	.	.	.
8r	.	8G#J)	.	8c#J)	.	.	.	.
=3	=3	=3	=3	=3	=3	=3	=3	=3
4A	<	(8AAL	<	(8c#L	<	(16f#LL	<	ii6
.	.	.	.	.	.	16g#J	.	.
.	.	8F#	.	8A	.	8a	.	.
8r	[[	8AAJ)	[[	8f#J)	[[	16cc#Jk)	.	.
.	.	.	.	.	.	16r	[[	.
=4	=4	=4	=4	=4	=4	=4	=4	=4
4B	p	(8AL	p	(8f#L	p	(8e	p	V7(4)
.	.	8BB	.	8a	.	4d#)	.	V7
8r	.	8AJ)	.	8f#J)	.	.	.	.
=5	=5	=5	=5	=5	=5	=5	=5	=5
(8EEL	<	(8G#L	<	(8bL	<	(8bbL	<	I
8GG#	>	8B	>	8g#	>	8gg#	>	.
8EEJ)	] ]]	8G#J)	] ]]	16bJk)	]	16bbJk)	]	.
.	.	.	.	16r	]]	16r	]]	.
=6	=6	=6	=6	=6	=6	=6	=6	=6
(8GG#L	p	(8c#L	p	4.e	p	4.ee	p	vi64
8CC#	.	8E	.	.	.	.	.	.
8GG#J)	.	8c#J)	.	.	.	.	.	.
=7	=7	=7	=7	=7	=7	=7	=7	=7
(8AAAL	<	(8c#L	<	(16f#LL	<	(16ff#LL	<	ii6
.	.	.	.	16g#J	.	16gg#J	.	.
8FF#	.	8C#	.	8a	.	8aa	.	ii
8BBBJ)	[[	8AJ) 8f#	[[	16d#Jk)	.	16dd#Jk)	.	V7
.	.	.	.	16r	[[	16r	[[	.
=8	=8	=8	=8	=8	=8	=8	=8	=8
!	!LO:DY:a	!	!	!	!	!	!	!
(8BBL	p p	(8AL 8f#	.	(8d#	p	(8dd#	p	.
8BBB	.	8G# 8e	.	4e)	.	4ee)	.	I\\
8EEJ)	.	8G#J)	.	.	.	.	.	.
=9:|!|:	=9:|!|:	=9:|!|:	=9:|!|:	=9:|!|:	=9:|!|:	=9:|!|:	=9:|!|:	=9:|!|:
(8G#L	<	(8E	<	4.r	.	(8bbL	<	I
8F#	>	[4B)	[ > ]]	.	.	8aa	>	V43
8EJ)	] ]]	.	.	.	.	16gg#Jk)	]	I
.	.	.	.	.	.	16r	]	.
=10	=10	=10	=10	=10	=10	=10	=10	=10
(8D#L	p	4.B_	p	(8bL	p	4.ff#	p	V6
8C#	.	.	.	8a#X	.	.	.	.
8D#J)	.	.	.	16bJk)	.	.	.	.
.	.	.	.	16r	.	.	.	.
=11	=11	=11	=11	=11	=11	=11	=11	=11
(8EL	<	4.B_	< > ]]	4.r	.	(8gg#L	<	I
8D#	>	.	.	.	.	8ff#	>	.
8C#J)	] ]]	.	.	.	.	16eeJk)	]	.
.	.	.	.	.	.	16r	]	.
=12	=12	=12	=12	=12	=12	=12	=12	=12
!LO:TX:b:i:t=cresc.	!	!LO:TX:b:i:t=cresc.	!	!LO:TX:b:i:t=cresc.	!	!LO:TX:b:i:t=cresc.	!	!
(8BBL	.	4.B_	]	8bL	.	(4.dd#	.	V2
8AA#X	.	.	.	8cc#	.	.	.	.
8AAJ	.	.	.	16bJk	.	.	.	.
.	.	.	.	16r	.	.	.	.
=13	=13	=13	=13	=13	=13	=13	=13	=13
8GG#L	.	(8BL]	.	(8bL	.	8bbL	.	I6
8FF#	.	8D#	.	8a	.	8aa	.	V43
8EEJ	.	8EJ	.	8g#J	.	8gg#J	.	I
=14	=14	=14	=14	=14	=14	=14	=14	=14
8DD#L	.	8F#	.	8f#L	.	8ff#L	.	V6
8CC#	.	[4BB	.	8e	.	8ee	.	vi7
8DD#J	.	.	.	8f#J	.	8ff#J	.	V6
=15	=15	=15	=15	=15	=15	=15	=15	=15
8EEL	.	8BBL]	.	8g#L	.	8gg#L	.	I
8DD#	.	8F#	.	8f#	.	8ff#	.	V6
8CC#J	.	8EJ	.	8a#XJ	.	8aa#XJ	.	#viio6/V
=16	=16	=16	=16	=16	=16	=16	=16	=16
8BBBL	.	8D#L	.	8bL	.	8bbL	.	V
8AAA#X	.	8E	.	8cc#	.	8ccc#	.	#viio/V
8AAAJ	.	8F#J	.	8dd#J	.	8ddd#J	.	V2
=17	=17	=17	=17	=17	=17	=17	=17	=17
8GG#L)	.	8BBL	.	8eeL	.	8eeeL	.	I6
8GG#	.	8E	.	8G#	.	8g#	.	.
8EEJ	.	8G#J)	.	16BJk)	.	16bJk)	.	I
.	.	.	.	16r	.	16r	.	.
=18	=18	=18	=18	=18	=18	=18	=18	=18
!	!	!	!LO:DY:a	!	!	!	!	!
(8GG#L	p	(8c#L	p p	(4E	.	(4e	p	vi64
8CC#	.	8E	.	.	.	.	.	.
8GG#J)	.	8C#J)	.	8e	.	8ee	.	.
=19	=19	=19	=19	=19	=19	=19	=19	=19
(8AAAL	<	(8c#L	<	16f#LL	<	16ff#LL	<	ii6
.	.	.	.	16g#J	.	16gg#J	.	.
8FF#	.	8C#	.	8a	.	8aa	.	ii
8AAAJ)	[[	8F#J)	[[	16cc#Jk)	.	16ccc#Jk)	.	ii6
.	.	.	.	16r	[[	16r	[[	.
=20	=20	=20	=20	=20	=20	=20	=20	=20
(8AAL	p	(8F#L	p	(8e	p	(8ee	p	ii65
8BBB	.	8A	.	4d#)	.	4dd#)	.	V7
8AAJ)	.	8F#J)	.	.	.	.	.	.
=21	=21	=21	=21	=21	=21	=21	=21	=21
(8EEL	<	(8g#L	<	(8bL	<	(8bbL	<	I
8GG#	[ >	8B	[ >	8g#	[ >	8gg#	[ >	I6
8EEJ)	]	8eJ)	]	16bJk)	.	16bbJk)	.	I
.	.	.	.	16r	]	16r	]	.
=22	=22	=22	=22	=22	=22	=22	=22	=22
(8GG#L	p	(8c#L	p	4.e	p	4.ee	p	vi64
8CC#	.	8E	.	.	.	.	.	.
8GG#J)	.	8c#J)	.	.	.	.	.	.
=23	=23	=23	=23	=23	=23	=23	=23	=23
(8AAAL	<	(8c#L	<	(16f#LL	<	(16ff#LL	<	ii6
.	.	.	.	16g#J	.	16gg#J	.	.
8FF#	.	8C#	.	8a	.	8aa	.	.
8BBBJ)	[[	8f#J) 8a	[[	16d#Jk)	.	16dd#Jk)	.	V7
.	.	.	.	16r	[[	16r	[[	.
=24	=24	=24	=24	=24	=24	=24	=24	=24
(8BBL	p	(8f#L 8a	p	(8d#	p	(8dd#	p	.
8BBB	.	8g#	.	4e)	.	4ee)	.	I\\
8EEJ)	.	8G#J)	.	.	.	.	.	.
=25:|!	=25:|!	=25:|!	=25:|!	=25:|!	=25:|!	=25:|!	=25:|!	=25:|!
!	!	!LO:TX:b:i:t=cresc.	!	!	!	!LO:TX:b:i:t=cresc.	!	!
4.r	.	(16g#LL	.	4.r	.	(4.ee	.	I
.	.	16b	.	.	.	.	.	.
.	.	16a	.	.	.	.	.	.
.	.	16g#	.	.	.	.	.	.
.	.	16f#	.	.	.	.	.	.
.	.	16g#JJ)	.	.	.	.	.	.
=26	=26	=26	=26	=26	=26	=26	=26	=26
!LO:TX:b:i:t=cresc.	!	!	!	!LO:TX:b:i:t=cresc.	!	!	!	!
(16eLL	.	4f#	.	(16bLL	.	4.ff#)	.	V
16d#	.	.	.	16ff#	.	.	.	.
16c#	.	.	.	16ee	.	.	.	.
16B	.	.	.	16dd#	.	.	.	.
16A#X	.	8r	.	16cc#	.	.	.	.
16BJJ)	.	.	.	16dd#JJ)	.	.	.	.
=27	=27	=27	=27	=27	=27	=27	=27	=27
4A	f	(16d#LL	f	4.b 4.dd#	f	8bb'L	f	V2
.	.	16f#	.	.	.	.	.	.
.	.	16e	.	.	.	8bb'	.	.
.	.	16d#	.	.	.	.	.	.
8r	.	16c#	.	.	.	8bb'J	.	.
.	.	16d#JJ)	.	.	.	.	.	.
=28	=28	=28	=28	=28	=28	=28	=28	=28
(16ALL	.	4e	.	(16BLL	.	8bb	.	I6
16G#	.	.	.	16b	.	.	.	.
16F#	.	.	.	16a	.	8eee	.	.
16E	.	.	.	16g#	.	.	.	.
16D#	.	8r	.	16f#	.	8eee	.	I6
16EJJ)	.	.	.	16g#JJ)	.	.	.	.
=29	=29	=29	=29	=29	=29	=29	=29	=29
[4.E	p	(16ELL	p	(16g#LL	p	(4.ee	p	I
!	!	!LO:TX:b:i:t=cresc.	!	!LO:TX:b:i:t=cresc.	!	!	!	!
.	.	16G#	.	16b	.	.	.	.
.	.	16F#	.	16a	.	.	.	.
.	.	16E	.	16g#	.	.	.	.
.	.	16D#	.	16f#	.	.	.	.
.	.	16EJJ)	.	16g#JJ)	.	.	.	.
=30	=30	=30	=30	=30	=30	=30	=30	=30
!LO:TX:b:i:t=cresc.	!	!	!	!	!	!LO:TX:b:i:t=cresc.	!	!
(16ELL]	.	16BBLL	.	4f#	.	4.ff#)	.	V
16D#	.	(16f#	.	.	.	.	.	.
16C#	.	16e	.	.	.	.	.	.
16BB	.	16d#	.	.	.	.	.	.
16AA#X	.	16c#	.	8r	.	.	.	.
16BBJJ)	.	16d#JJ)	.	.	.	.	.	.
=31	=31	=31	=31	=31	=31	=31	=31	=31
[4.AA	f	(16f#LL	f	(16dd#LL	f	8bb'L	f	V2
.	.	16a	.	16ff#	.	.	.	.
.	.	16g#	.	16ee	.	8bb'	.	.
.	.	16f#	.	16dd#	.	.	.	.
.	.	16e	.	16cc#	.	8bb'J	.	.
.	.	16f#JJ)	.	16dd#JJ)	.	.	.	.
=32	=32	=32	=32	=32	=32	=32	=32	=32
(16AALL]	.	(16BLL	.	(16eeLL	.	4gg#	.	I
16GG#	.	16e	.	16b	.	.	.	.
16FF#	.	16d#	.	16a	.	.	.	.
16EE	.	16e	.	16g#	.	.	.	.
16DD#	.	16A	.	16f#	.	8r	.	.
16EEJJ)	.	16G#JJ)	.	16g#JJ	.	.	.	.
=33	=33	=33	=33	=33	=33	=33	=33	=33
4EE	p	4F#	p	16aLL	p	(4.ee	p	IV6
.	.	.	.	16g#	.	.	.	.
!	!	!	!	!LO:TX:b:i:t=cresc.	!	!	!	!
.	.	.	.	16f#	.	.	.	.
.	.	.	.	16e	.	.	.	.
!LO:TX:a:i:t=cresc.	!	!LO:TX:b:i:t=cresc.	!	!	!	!	!	!
[8c#	.	[8a	.	16d#	.	.	.	.
.	.	.	.	16eJJ)	.	.	.	.
=34	=34	=34	=34	=34	=34	=34	=34	=34
!	!	!	!	!	!	!LO:TX:b:i:t=cresc.	!	!
(16c#LL]	.	(16aLL]	.	4d#	.	4.ff#)	.	V43
16B	.	16g#	.	.	.	.	.	.
16A	.	16f#	.	.	.	.	.	.
16G#	.	16e	.	.	.	.	.	.
16F#	.	16d#	.	[8a	.	.	.	.
16G#JJ)	.	16eJJ)	.	.	.	.	.	.
=35	=35	=35	=35	=35	=35	=35	=35	=35
4F#	f	4d#	f	(16aLL]	f	8bb'L	f	.
.	.	.	.	16g#	.	.	.	.
.	.	.	.	16f#	.	8bb'	.	.
.	.	.	.	16e	.	.	.	.
[8A	.	[8f#	.	16d#	.	8bb'J	.	V2
.	.	.	.	16f#JJ)	.	.	.	.
=36	=36	=36	=36	=36	=36	=36	=36	=36
(16ALL]	.	(16f#LL]	.	4e	.	(8bb	.	I6
16G#	.	16B	.	.	.	.	.	.
16F#	.	16A	.	.	.	4eee)	.	vi6
16E	.	16G#	.	.	.	.	.	.
16D#	.	16F#	.	[8cc#	.	.	.	.
16EJJ)	.	16G#JJ)	.	.	.	.	.	.
=37	=37	=37	=37	=37	=37	=37	=37	=37
!	!	!	!LO:DY:a	!	!	!	!	!
4E	p	(16ALL	p p	(16cc#LL]	.	(4.ee	p	I
!	!	!LO:TX:b:i:t=cresc.	!	!LO:TX:b:i:t=cresc.	!	!	!	!
.	.	16G#	.	16b	.	.	.	.
.	.	16F#	.	16a	.	.	.	.
.	.	16E	.	16g#	.	.	.	.
!LO:TX:b:i:t=cresc.	!	!	!	!	!	!	!	!
[8E	.	16D#	.	16f#	.	.	.	.
.	.	16EJJ)	.	16g#JJ)	.	.	.	.
=38	=38	=38	=38	=38	=38	=38	=38	=38
!	!	!	!	!	!	!LO:TX:b:i:t=cresc.	!	!
(16ELL]	.	4BB	.	(16g#LL	.	4.ff#)	.	V6/V
16D#	.	.	.	16f#	.	.	.	.
16C#	.	.	.	16e	.	.	.	.
16BB	.	.	.	16d#	.	.	.	.
16AA#X	.	[8f#	.	16c#	.	.	.	.
[16BBJJ)	.	.	.	16d#JJ)	.	.	.	.
=39	=39	=39	=39	=39	=39	=39	=39	=39
!	!LO:DY:a	!	!	!	!	!	!	!
(16BBLL]	f f	(16f#LL]	.	4d#	f	8bb'L	f	V7
16AA	.	16B)	.	.	.	.	.	.
16GG#	.	(16B	.	.	.	8bb'	.	.
16FF#	.	16A	.	.	.	.	.	.
16EE#X	.	16G#	.	[8a	.	8bb'J	.	.
[16FF#JJ)	.	16AJJ)	.	.	.	.	.	.
=40	=40	=40	=40	=40	=40	=40	=40	=40
(16FF#LL]	.	(16D#LL	.	(16aLL]	.	8gg#	.	I\\
16EE	.	16E	.	16g#	.	.	.	.
16DD#	.	16F#	.	16f#	.	8r	.	.
16EE	.	16E	.	16g#	.	.	.	.
16DD	.	16F#	.	16a	.	(16eeLL	.	V2/IV
!LO:TX:b:i:t=dim.	!	!LO:TX:b:i:t=dim.	!	!LO:TX:b:i:t=dim.	!	!LO:TX:b:i:t=dim.	!	!
16BBBJJ)	.	16G#JJ)	.	16bJJ)	.	16ddJJ)	.	.
=41||	=41||	=41||	=41||	=41||	=41||	=41||	=41||	=41||
*k[f#c#g#]	*	*k[f#c#g#]	*	*k[f#c#g#]	*	*k[f#c#g#]	*	*
*A:	*	*A:	*	*A:	*	*A:	*	*
!	!	!	!	!	!LO:DY:a	!	!	!
(4.AAA	p	(4.C# 4.E	p	4cc#	p p	(16ddLL	.	IV.I
!	!	!	!	!	!	!LO:TX:b:i:t=cresc.	!	!
.	.	.	.	.	.	16cc#	.	.
.	.	.	.	.	.	16b	.	.
.	.	.	.	.	.	16a	.	.
!	!	!	!	!LO:TX:a:i:t=cresc.	!	!	!	!
.	.	.	.	8r	.	16g#	.	.
.	.	.	.	.	.	16aJJ)	.	.
=42	=42	=42	=42	=42	=42	=42	=42	=42
!LO:TX:b:i:t=cresc.	!	!LO:TX:b:i:t=cresc.	!	!	!	!	!	!
4.BBB)	.	4.D) 4.E	.	(16aaLL	.	4g#	.	V43
.	.	.	.	16gg#	.	.	.	.
.	.	.	.	16ff#	.	.	.	.
.	.	.	.	16ee	.	.	.	.
.	.	.	.	16dd#X	.	8r	.	.
.	.	.	.	16eeJJ)	.	.	.	.
=43	=43	=43	=43	=43	=43	=43	=43	=43
!	!LO:DY:a	!	!	!	!	!	!	!
8EE'L	f f	8DL 8E	.	4dd	f	(16ccc#LL	f	V7
.	.	.	.	.	.	16bb	.	.
8EE'	.	8D 8E	.	.	.	16aa	.	.
.	.	.	.	.	.	16gg#	.	.
8EE'J	.	8DJ 8E	.	8r	.	16ff#	.	.
.	.	.	.	.	.	16gg#JJ)	.	.
=44	=44	=44	=44	=44	=44	=44	=44	=44
(8EE	.	4.C# 4.E	.	(16ddLL	.	4aa	.	I
.	.	.	.	16cc#	.	.	.	.
4AA)	.	.	.	16b	.	.	.	.
.	.	.	.	16a	.	.	.	.
.	.	.	.	16g#	.	16ccc#LL	.	.
.	.	.	.	16aJJ)	.	16dddJJ	.	.
=45	=45	=45	=45	=45	=45	=45	=45	=45
!	!LO:DY:a	!	!LO:DY:a	!	!	!	!	!
(4.AAA	p p	(4.C# 4.E	p	(16ddLL	.	(16dddLL	p	.
!	!	!	!	!LO:TX:b:i:t=cresc.	!	!LO:TX:b:i:t=cresc.	!	!
.	.	.	.	16cc#	.	16ccc#	.	.
.	.	.	.	16b	.	16bb	.	.
.	.	.	.	16a	.	16aa	.	.
.	.	.	.	16g#	.	16gg#	.	.
.	.	.	.	16aJJ)	.	16aaJJ)	.	.
=46	=46	=46	=46	=46	=46	=46	=46	=46
!LO:TX:b:i:t=cresc.	!	!LO:TX:b:i:t=cresc.	!	!	!	!	!	!
4.BBB)	.	4.D) 4.E	.	(16aLL	.	(16aaLL	.	V43
.	.	.	.	16g#	.	16gg#	.	.
.	.	.	.	16f#	.	16ff#	.	.
.	.	.	.	16e	.	16ee	.	.
.	.	.	.	16d#X	.	16dd#X	.	.
.	.	.	.	16eJJ)	.	16eeJJ)	.	.
=47	=47	=47	=47	=47	=47	=47	=47	=47
!	!	!	!	!	!LO:DY:a	!	!	!
8EE'L	f	8BBL 8G#	f	(16eLL	f f	(16eeLL	.	V7
.	.	.	.	16d	.	16dd	.	.
8EE'	.	8BB 8G#	.	16c#	.	16cc#	.	.
.	.	.	.	16B	.	16b	.	.
8EE'J	.	8BBJ 8G#	.	16A#X	.	16a#X	.	.
.	.	.	.	16BJJ)	.	16bJJ)	.	.
=48	=48	=48	=48	=48	=48	=48	=48	=48
4CC#	.	4C# 4A	.	(16BLL	.	(16bLL	.	I6
.	.	.	.	16A	.	16a	.	.
.	.	.	.	16G#	.	16g#	.	.
.	.	.	.	16A	.	16a	.	.
!	!	!	!	!LO:TX:b:i:t=dim.	!	!LO:TX:b:i:t=dim.	!	!
8r	.	[8d	.	16B	.	16b	.	.
.	.	.	.	16AJJ)	.	16aJJ)	.	.
=49	=49	=49	=49	=49	=49	=49	=49	=49
!	!	!	!LO:DY:a	!	!	!	!	!
(4.A	p	(16dLL]	p p	4A	.	4a	p	I
!	!	!LO:TX:b:i:t=cresc.	!	!	!	!	!	!
.	.	16c#	.	.	.	.	.	.
.	.	16B	.	.	.	.	.	.
.	.	16A	.	.	.	.	.	.
!	!	!	!	!LO:TX:b:i:t=cresc.	!	!	!	!
.	.	16G#	.	[8cc#	.	8r	.	.
.	.	16AJJ)	.	.	.	.	.	.
=50	=50	=50	=50	=50	=50	=50	=50	=50
!LO:TX:b:i:t=cresc.	!	!	!	!	!	!LO:TX:b:i:t=cresc.	!	!
4.B)	.	(16ALL	.	(16cc#LL]	.	4ee	.	V
.	.	16G#	.	16b	.	.	.	.
.	.	16F#	.	16a	.	.	.	.
.	.	16E	.	16g#	.	.	.	.
.	.	16D#X	.	16f#	.	[8eee	.	.
.	.	16EJJ)	.	16g#JJ)	.	.	.	.
=51	=51	=51	=51	=51	=51	=51	=51	=51
!	!	!	!LO:DY:a	!	!	!	!	!
8ee'L	f	(16ELL	f f	(4g#	.	(16eeeLL]	f	.
.	.	16F#	.	.	.	16ddd	.	.
8ee'	.	16E	.	.	.	16ccc#	.	.
.	.	16D	.	.	.	16bb	.	V2
8ee'J	.	16C#	.	16aLL	.	16aa	.	I6
.	.	16DJJ)	.	16g#JJ)	.	16bbJJ)	.	V2
=52	=52	=52	=52	=52	=52	=52	=52	=52
(8ee	.	(16DLL	.	(16g#LL	.	(16bbLL	.	I6
.	.	16C#	.	16ee	.	16ccc#	.	.
4aa)	.	16BB)	.	16dd	.	16gg#	.	I
.	.	16AAJJ	.	16cc#	.	16aa	.	.
.	.	[8d	.	16g#	.	16bb	.	.
.	.	.	.	16aJJ)	.	16aaJJ)	.	.
=53	=53	=53	=53	=53	=53	=53	=53	=53
(4.a	.	16dLL]	.	4e	.	4aa	.	I6
!	!	!LO:TX:b:i:t=cresc.	!	!	!	!	!	!
.	.	(16c#	.	.	.	.	.	.
.	.	16B	.	.	.	.	.	.
.	.	16A	.	.	.	.	.	.
!	!	!	!	!LO:TX:b:i:t=cresc.	!	!	!	!
.	.	16G#	.	[8cc#	.	8r	.	I
.	.	16AJJ)	.	.	.	.	.	.
=54	=54	=54	=54	=54	=54	=54	=54	=54
!LO:TX:b:i:t=cresc.	!	!	!	!	!	!LO:TX:b:i:t=cresc.	!	!
4.b)	.	(16ALL	.	(16cc#LL]	.	4ee	.	V6
.	.	16G#	.	16b	.	.	.	.
.	.	16F#	.	16a	.	.	.	.
.	.	16E	.	16g#	.	.	.	.
.	.	16D#X	.	16f#	.	[8eee	.	.
.	.	16EJJ)	.	16g#JJ)	.	.	.	.
=55	=55	=55	=55	=55	=55	=55	=55	=55
8ee'L	f	(16ELL	f	4g#	f	(16eeeLL]	f	V
.	.	16F#	.	.	.	16ddd	.	.
8ee'	.	16E	.	.	.	16ccc#	.	.
.	.	16D	.	.	.	16bb	.	.
8ee'J	.	16C#	.	[8dd	.	16aa	.	.
.	.	16BBJJ)	.	.	.	16bbJJ)	.	.
=56	=56	=56	=56	=56	=56	=56	=56	=56
4cc#	.	(16AALL	.	(16ddLL]	.	(16bbLL	.	I\\
.	.	16A	.	16cc#	.	16ccc#	.	.
.	.	16d	.	16b	.	16gg#	.	viio64
.	.	16c#	.	16a	.	16aa	.	I6
!	!	!	!	!LO:TX:b:i:t=dim.	!	!LO:TX:b:i:t=dim.	!	!
8r	.	16G#	.	16dd	.	16bb	.	viio
!	!	!LO:TX:b:i:t=dim.	!	!	!	!	!	!
.	.	16AJJ)	.	16cc#JJ)	.	16ccc#JJ)	.	I
=57	=57	=57	=57	=57	=57	=57	=57	=57
!	!	!	!LO:DY:a	!	!	!	!	!
4.r	.	(16ALL	p p	(16cc#LL	.	8ccc#'L	p	.
.	.	16G#	.	16b	.	.	.	.
.	.	16F#	.	16a	.	8ccc#'	.	V6/vi
.	.	16E#X	.	16g#	.	.	.	.
.	.	16D#X	.	16f#	.	8ccc#'J	.	.
.	.	16E#JJ)	.	16g#JJ)	.	.	.	.
=58	=58	=58	=58	=58	=58	=58	=58	=58
(16BLL	p	4F#	.	4a	.	4aa	.	vi
16A	.	.	.	.	.	.	.	.
16G#	.	.	.	.	.	.	.	.
16F#	.	.	.	.	.	.	.	.
16E#X	.	8r	.	8r	.	8r	.	.
16F#JJ)	.	.	.	.	.	.	.	.
=59	=59	=59	=59	=59	=59	=59	=59	=59
!LO:TX:b:i:t=sempre p	!	!LO:TX:b:i:t=sempre p	!	!LO:TX:b:i:t=sempre p	!	!LO:TX:b:i:t=sempre p	!	!
8G#'L	.	8B#X'L	.	8g#'L	.	8ff#'L	.	V7/iii
8G#'	.	8c#'	.	8g#'	.	8ee'	.	V(64)/iii
8G#'J	.	8f#'J	.	8g#'J	.	8dd#X'J	.	V7/iii
=60	=60	=60	=60	=60	=60	=60	=60	=60
(8G#	.	(8f#L	.	4g#	.	(8dd#XL	.	V7/iii
4c#)	.	8eJ)	.	.	.	8ee	.	iii
.	.	(16ELL	.	(16g#LL	.	8cc#J)	.	.
.	.	16E#XJJ)	.	16cc#JJ)	.	.	.	.
=61	=61	=61	=61	=61	=61	=61	=61	=61
8EE#X'L	.	(16c#LL	.	(16cc#LL	.	8ccc#'L	.	V65/vi
.	.	16B	.	16b	.	.	.	.
8FF#'	.	16A	.	16a	.	8ccc#'	.	vi
.	.	16G#	.	16g#	.	.	.	.
8GG#'J	.	16F#	.	16f#	.	8ccc#'J	.	V43/vi
.	.	16G#JJ)	.	16g#JJ)	.	.	.	.
=62	=62	=62	=62	=62	=62	=62	=62	=62
(8EE#XL	.	(8G#L	.	(8g#L	.	4aa	.	vi
8FF#	.	8A	.	8a	.	.	.	.
8AAJ)	.	8F#J)	.	8f#J)	.	8r	.	vi6
=63	=63	=63	=63	=63	=63	=63	=63	=63
8EE'L	.	8G#'L	.	8c#'L	.	8gg#'L	.	vi.i6
8DD#X'	.	8G#'	.	8B#X'	.	8gg#'	.	V64
8D#X'J	.	8A#X'J	.	8c#'J	.	8ff##X'J	.	V7/V
=64	=64	=64	=64	=64	=64	=64	=64	=64
(8D#XL	.	(8AA#XL	.	(8c#L	.	(8ff##X	.	.
8GG#	.	8BB#X	.	8d#X	.	4gg#)	.	i
8C#J)	.	8C#J)	.	8EJ)	.	.	.	.
=65||	=65||	=65||	=65||	=65||	=65||	=65||	=65||	=65||
*k[f#c#g#d#]	*	*k[f#c#g#d#]	*	*k[f#c#g#d#]	*	*k[f#c#g#d#]	*	*
*E:	*	*E:	*	*E:	*	*E:	*	*
(16AALL	.	(16c#LL	.	(16cc#LL	.	8ccc#'L	.	VI
16GG#	.	16B	.	16b	.	.	.	.
16FF#	.	16A	.	16a	.	8ccc#'	.	V6/iv
16EE#X	.	16G#	.	16g#	.	.	.	.
16DD#	.	16F#	.	16f#	.	8ccc#'J	.	.
16EE#JJ)	.	16G#JJ)	.	16g#JJ)	.	.	.	.
=66	=66	=66	=66	=66	=66	=66	=66	=66
(8EE#XL	.	(8G#L	.	(8g#L	.	4aa	.	iv
8FF#	.	8A	.	8a	.	.	.	.
8AAJ)	.	8c#J)	.	8f#J)	.	8r	.	iv6
=67	=67	=67	=67	=67	=67	=67	=67	=67
8G#'L	.	8B#X'L	.	8dd#'L	.	8ff#'L	.	V7
8G#'	.	8c#'	.	8cc#'	.	8ee'	.	V(64)
8G#'J	.	8g#'J	.	8f#'J	.	8dd#'J	.	V7
=68	=68	=68	=68	=68	=68	=68	=68	=68
(8G#	.	4.g#	.	(8f#	.	(8dd#L	.	.
4c#)	.	.	.	4e)	.	8ee	.	i
.	.	.	.	.	.	8cc#J)	.	.
=69	=69	=69	=69	=69	=69	=69	=69	=69
8CC#'L	.	8C#'L	.	(16e#XLL	.	(16ccc#LL	.	V7/iv
.	.	.	.	16g#	.	16bb	.	.
8CC#'	.	8C#'	.	16f#	.	16aa	.	.
.	.	.	.	16e#	.	16gg#	.	.
8CC#'J	.	8C#'J	.	16d#	.	16ff#	.	.
.	.	.	.	16e#JJ)	.	16gg#JJ)	.	.
=70	=70	=70	=70	=70	=70	=70	=70	=70
4AAA	.	8C#	.	8f#	.	(8gg#L	.	iv6(9)
.	.	4F#	.	8r	.	8aa	.	iv6
8r	.	.	.	8A	.	8ff#J)	.	.
=71	=71	=71	=71	=71	=71	=71	=71	=71
!LO:TX:b:i:t=sempre p	!	!LO:TX:b:i:t=sempre p	!	!LO:TX:b:i:t=sempre p	!	!LO:TX:b:i:t=sempre p	!	!
8EE'L	.	8E'L	.	8c#'L	.	8gg#'L	.	i6
8DD#'	.	8D#'	.	8B#X'	.	8gg#'	.	V(64)/V
8D#'J	.	8A#X'J	.	8c#'J	.	8ff##X'J	.	V7/V
=72	=72	=72	=72	=72	=72	=72	=72	=72
(8D#L	.	(8AA#XL	.	(8c#L	.	(8ff##X	.	.
8GG#	.	8BB#X	.	8d#	.	4gg#)	.	i
8C#J)	.	8C#J)	.	8EJ)	.	.	.	.
=73	=73	=73	=73	=73	=73	=73	=73	=73
8f#'L	.	8d#'L	.	4.r	.	8gg#'L	.	V43
8e'	.	8c#'	.	.	.	8gg#'	.	i
8d#'J	.	8B#X'J	.	.	.	8gg#'J	.	V6
=74	=74	=74	=74	=74	=74	=74	=74	=74
(8d#L	.	(8F#L	.	4.r	.	(8gg#	.	V2
8e	.	8G#	.	.	.	4ccc#)	.	i6
8c#J)	.	8EJ)	.	.	.	.	.	.
=75	=75	=75	=75	=75	=75	=75	=75	=75
8GG#'L	.	8B#X'L	.	8d#'L	.	(16gg#LL	.	V
.	.	.	.	.	.	16ff#	.	.
8GG#'	.	8c#'	.	8e'	.	16ee	.	V(64)
.	.	.	.	.	.	16dd#	.	.
8GG#'J	.	8d#'J	.	8f#'J	.	16cc#	.	V7
.	.	.	.	.	.	16dd#JJ)	.	.
=76	=76	=76	=76	=76	=76	=76	=76	=76
(8GG#	.	(8B#XL	.	(8f#L	.	(8dd#L	.	.
4C#)	.	8c#	.	8e	.	8ee	.	i\\
.	.	8EJ)	.	8G#J)	.	8cc#J)	.	.
=77	=77	=77	=77	=77	=77	=77	=77	=77
8BB#X'L	.	8D#'L	.	(16g#LL	.	8gg#'L	.	V65
.	.	.	.	16f#	.	.	.	.
8C#'	.	8E'	.	16e	.	8gg#'	.	i
.	.	.	.	16d#	.	.	.	.
8D#'J	.	8F#'J	.	16c#	.	8gg#'J	.	V43
.	.	.	.	16d#JJ)	.	.	.	.
=78	=78	=78	=78	=78	=78	=78	=78	=78
8GG#'L	.	(8F#	.	(8d#L	.	(8gg#	.	V7
8GG#'	.	4E)	.	8e	.	4ccc#)	.	V(64)
8GG#'J	.	.	.	8c#J)	.	.	.	.
=79	=79	=79	=79	=79	=79	=79	=79	=79
(16GG#LL	.	8B#X'L	.	8d#'L	.	8gg#'L	.	V
16FF#	.	.	.	.	.	.	.	.
16EE	.	8c#'	.	8e'	.	8gg#'	.	i6
16DD#	.	.	.	.	.	.	.	.
16CC#	.	8d#'J	.	8f#'J	.	8gg#'J	.	V43
16DD#JJ)	.	.	.	.	.	.	.	.
=80	=80	=80	=80	=80	=80	=80	=80	=80
(8DD#L	.	(8F#L	.	(8f#L	.	(8gg#	.	.
8EE	.	8E	.	8g#	.	4ccc#)	.	i\\
8CC#J)	.	8G#J)	.	8eJ)	.	.	.	.
=81	=81	=81	=81	=81	=81	=81	=81	=81
(8EEL	<	(8G#L	<	(8eL	<	(8bbL	<	I.I
8GG#	[ >	8E	[ >	16eeL	[ >	8gg#	[ >	I6
.	.	.	.	16dd#	.	.	.	.
8EEJ)	]]	8G#J)	]]	16ee	.	16bbJk)	.	I
.	.	.	.	16g#JJ)	]]	16r	]]	.
=82	=82	=82	=82	=82	=82	=82	=82	=82
!	!LO:DY:a	!	!	!	!	!	!	!
(8GG#L	p p	(8eL	.	(8g#L	p	4.ee	p	vi64
8CC#	.	8G#	.	16eL	.	.	.	.
.	.	.	.	16d#	.	.	.	.
8GG#J)	.	8c#J)	.	16e	.	.	.	.
.	.	.	.	16G#JJ)	.	.	.	.
=83	=83	=83	=83	=83	=83	=83	=83	=83
(8AAAL	<	(8C#L	<	(8c#L	<	(16ff#LL	<	ii6
.	.	.	.	.	.	16gg#J	.	.
8FF#	.	8AA	.	16cc#L	.	8aa	.	ii
.	.	.	.	16b	.	.	.	.
8AAAJ)	[[	8AJ)	[[	16a	.	16ccc#Jk)	.	ii6
.	.	.	.	16f#JJ)	[[	16r	[[	.
=84	=84	=84	=84	=84	=84	=84	=84	=84
!	!LO:DY:a	!	!	!	!	!	!	!
(8AAL	p p	(8F#L	.	(8f#L	p	(8ee	p	V2(4)
8BBB	.	8f#	.	16aL	.	4dd#)	.	V2
.	.	.	.	16f#	.	.	.	.
8AAJ)	.	8BJ)	.	16e	.	.	.	.
.	.	.	.	16d#JJ)	.	.	.	.
=85	=85	=85	=85	=85	=85	=85	=85	=85
(8EEL	<	(8BL	<	(8g#L	<	(8bbL	<	I
8GG#	[ >	8E	[ >	16eeL	[ >	8gg#	[ >	I6
.	.	.	.	16dd#	.	.	.	.
8EEJ)	]]	8G#J)	]]	16ee	.	16bbJk)	.	I
.	.	.	.	16g#JJ)	]]	16r	]]	.
=86	=86	=86	=86	=86	=86	=86	=86	=86
(8GG#L	p	(8C#L	p	(8g#L	p	4.ee	p	vi64
8CC#	.	8c#	.	16eL	.	.	.	.
.	.	.	.	16d#	.	.	.	.
8GG#J)	.	8EJ)	.	16e	.	.	.	.
.	.	.	.	16G#JJ)	.	.	.	.
=87	=87	=87	=87	=87	=87	=87	=87	=87
(8AAAL	<	(8AL	<	(16c#LL	<	(16ff#LL	<	ii6
.	.	.	.	16B	.	16gg#J	.	.
8FF#	.	8C#	.	16A	.	8aa	.	ii
.	.	.	.	16a	.	.	.	.
8BBBJ)	[[	8AJ)	[[	16g#	.	16dd#Jk)	.	V7
.	.	.	.	16f#JJ)	[[	16r	[[	.
=88	=88	=88	=88	=88	=88	=88	=88	=88
(8BBL	p	(8AL	p	(16f#LL	p	(8dd#	p	.
.	.	.	.	16a	.	.	.	.
8BBB	.	8E	.	16g#	.	4ee)	.	I\\
.	.	.	.	16f#J	.	.	.	.
8EEJ)	.	8G#J)	.	8eJ)	.	.	.	.
=89	=89	=89	=89	=89	=89	=89	=89	=89
8EE	.	8r	.	8r	.	(16BLL	<	I
.	.	.	.	.	.	16b	.	.
8r	.	8E	.	8G#	.	16gg#	.	.
.	.	.	.	.	.	16bb	[ >	.
8EE	.	8r	.	8r	.	16aa	.	.
.	.	.	.	.	.	16gg#JJ)	]]	.
=90	=90	=90	=90	=90	=90	=90	=90	=90
8r	.	8G#	.	8e	.	(16ff#LL	p	vi
.	.	.	.	.	.	16ee	.	.
8CC#	.	8r	.	8r	.	16dd#	.	.
.	.	.	.	.	.	16ee	.	.
8r	.	8G#	.	8e	.	16ff#	.	.
.	.	.	.	.	.	16eeJJ)	.	.
=91	=91	=91	=91	=91	=91	=91	=91	=91
8AAA	.	8r	.	8r	.	(16gg#LL	<	ii6(2)
.	.	.	.	.	.	16ee#X	.	.
8r	.	8A	.	8f#	.	16ff#	.	ii6
.	.	.	.	.	.	16gg#	.	.
8AAA	.	8r	.	8r	.	16aa	.	.
.	.	.	.	.	.	16ccc#JJ)	[[	.
=92	=92	=92	=92	=92	=92	=92	=92	=92
8r	.	8F#	.	8a	.	(16eeLL	p	V7(4)
.	.	.	.	.	.	16cc#	.	.
8BBB	.	8r	.	8r	.	16ee	.	.
.	.	.	.	.	.	16dd#	.	V7
8r	.	8F#	.	8a	.	16cc#	.	.
.	.	.	.	.	.	16dd#JJ)	.	.
=93	=93	=93	=93	=93	=93	=93	=93	=93
8EE	.	8r	.	8r	.	(16BLL	<	I
.	.	.	.	.	.	16b	.	.
8r	.	8G#	.	8e	.	16gg#	.	.
.	.	.	.	.	.	16bb	[ >	.
8EE	.	8r	.	8r	.	16aa	.	.
.	.	.	.	.	.	16gg#JJ)	]]	.
=94	=94	=94	=94	=94	=94	=94	=94	=94
8r	.	8C# 8E	.	8g#	.	(16ff#LL	p	vi
.	.	.	.	.	.	16ee	.	.
8CC#	.	8r	.	8r	.	16dd#	.	.
.	.	.	.	.	.	16ee	.	.
8r	.	8C# 8E	.	8g#	.	16ff#	.	.
.	.	.	.	.	.	16eeJJ)	.	.
=95	=95	=95	=95	=95	=95	=95	=95	=95
8AAA	.	8r	.	8r	.	(16ee#XLL	<	ii6
.	.	.	.	.	.	16ff#	.	.
8r	.	8F#L	.	8c#L	.	16gg#	.	.
.	.	.	.	.	.	16aa	.	.
8BBB	.	8F#J	.	8AJ	.	16cc#	.	V7
.	.	.	.	.	.	16dd#JJ)	[[	.
=96	=96	=96	=96	=96	=96	=96	=96	=96
!	!	!	!	!	!LO:DY:a	!	!	!
8r	.	8B	.	8a	p	(16dd#LL	.	.
.	.	.	.	.	.	16f#	.	.
8BBBL	.	8r	.	8r	.	16dd#	.	.
.	.	.	.	.	.	16ff#	.	.
8EEJ	.	8B	.	8g#	.	16dd#	.	I\\
.	.	.	.	.	.	16eeJJ)	.	.
=97	=97	=97	=97	=97	=97	=97	=97	=97
4.r	.	(8g#L	< >	[4.b	.	(16bbLL	<	I6
.	.	.	.	.	.	16BJJ	.	.
.	.	8f#	.	.	.	16aLL	.	V43
.	.	.	.	.	.	16aa	[ >	.
.	.	8eJ)	]]	.	.	16gg#	.	I
.	.	.	.	.	.	16g#JJ)	]]	.
=98	=98	=98	=98	=98	=98	=98	=98	=98
!	!	!	!	!	!LO:DY:a	!	!	!
4.r	.	(8d#L	] p	(8bL]	p	(16ff#LL	.	V6
.	.	.	.	.	.	16B	.	.
.	.	8c#	.	8cc#	.	16e	.	.
.	.	.	.	.	.	16ff#	.	.
.	.	8d#J)	.	8bJ)	.	16ee	.	.
.	.	.	.	.	.	16ff#JJ)	.	.
=99	=99	=99	=99	=99	=99	=99	=99	=99
4.r	.	(8eL	.	4b	.	(16gg#LL	.	I
.	.	.	.	.	.	16B	.	.
.	.	8d#	.	.	.	16f#	.	V6
.	.	.	.	.	.	16ff#JJ	.	.
.	.	8c#J)	.	[8f#	.	16a#XLL	.	V43/V
.	.	.	.	.	.	16eeJJ)	.	.
=100	=100	=100	=100	=100	=100	=100	=100	=100
!LO:TX:b:i:t=cresc.	!	!LO:TX:b:i:t=cresc.	!	!LO:TX:b:i:t=cresc.	!	!LO:TX:b:i:t=cresc.	!	!
(8BL	.	[4.B	.	8f#L]	.	(16dd#LL	.	V
.	.	.	.	.	.	16B	.	.
8A#X	.	.	.	8e	.	16cc#	.	V65/V
.	.	.	.	.	.	16dd#	.	.
8AJ	.	.	.	8f#J	.	16ee	.	V2
.	.	.	.	.	.	16dd#JJ)	.	.
=101	=101	=101	=101	=101	=101	=101	=101	=101
8G#L	.	4.B_	.	(8bL	.	(16bbLL	.	I6
.	.	.	.	.	.	16BJJ	.	.
8F#	.	.	.	8a	.	16bLL	.	V43
.	.	.	.	.	.	16aa	.	.
8EJ	.	.	.	8g#J	.	16b	.	I
.	.	.	.	.	.	16gg#JJ)	.	.
=102	=102	=102	=102	=102	=102	=102	=102	=102
8D#L	.	4.B_	.	8f#L	.	(16ff#LL	.	V6
.	.	.	.	.	.	16B	.	.
8C#	.	.	.	8e	.	16b	.	.
.	.	.	.	.	.	16ff#	.	.
8D#J	.	.	.	8f#J	.	16gg#	.	.
.	.	.	.	.	.	16ff#JJ)	.	.
=103	=103	=103	=103	=103	=103	=103	=103	=103
8EL	.	4.B_	.	8g#L	.	(16gg#LL	.	I
.	.	.	.	.	.	16B	.	.
8D#	.	.	.	8f#	.	16b	.	V6
.	.	.	.	.	.	16ff#	.	.
8C#J	.	.	.	8eJ	.	16b	.	#viio6(9)/V
.	.	.	.	.	.	16aa#XJJ)	.	.
=104	=104	=104	=104	=104	=104	=104	=104	=104
8BBL	.	8BL]	.	8d#L	.	(16bbLL	.	V
.	.	.	.	.	.	16b	.	.
8AA#X	.	8E	.	8f#	.	16ccc#	.	V65/V
.	.	.	.	.	.	16cc#	.	.
8AAJ)	.	8F#J	.	8bJ)	.	16ddd#	.	V2
.	.	.	.	.	.	16dd#JJ)	.	.
=105	=105	=105	=105	=105	=105	=105	=105	=105
8GG#L	.	8BB	.	8b	.	16eee'LL	.	I6
.	.	.	.	.	.	16EJJ	.	.
8EEJ	.	8r	.	8r	.	(16gg#LL	.	I
.	.	.	.	.	.	16bb	.	.
8r	.	8E	.	8g#	.	16aa	.	.
.	.	.	.	.	.	16gg#JJ)	.	.
=106	=106	=106	=106	=106	=106	=106	=106	=106
8CC#	p	8r	.	8r	.	(16ff#LL	p	vi
.	.	.	.	.	.	16ee	.	.
!	!	!	!LO:DY:a	!	!	!	!	!
8r	.	8E	p p	8g#	.	16dd#	.	.
.	.	.	.	.	.	16ee	.	.
8CC#	.	8r	.	8r	.	16ff#	.	.
.	.	.	.	.	.	16eeJJ)	.	.
=107	=107	=107	=107	=107	=107	=107	=107	=107
8r	<	8A	<	8c# 8f#	<	(16gg#LL	<	ii6(9)
.	.	.	.	.	.	16ee#X	.	.
8AAA	.	8r	.	8r	.	16ff#	.	ii6
.	.	.	.	.	.	16gg#	.	.
8r	[[	8A	[[	8cc#	[[	16aa	.	.
.	.	.	.	.	.	16ccc#JJ)	[[	.
=108	=108	=108	=108	=108	=108	=108	=108	=108
8BBB	p	8r	.	8r	.	(16eeLL	p	V(4)
.	.	.	.	.	.	16cc#	.	.
8r	.	8F#	p	8d#	p	16ee	.	.
.	.	.	.	.	.	16dd#	.	V
8AA	.	8r	.	8r	.	16cc#	.	V2
.	.	.	.	.	.	16dd#JJ)	.	.
=109	=109	=109	=109	=109	=109	=109	=109	=109
8GG#	.	8r	.	8r	.	(16bbLL	<	I6
.	.	.	.	.	.	16b	.	.
8r	.	8E	.	8e	.	16gg#	.	.
.	.	.	.	.	.	16g#)	[ >	.
8EE	.	8r	.	8r	.	(16bb	.	I
.	.	.	.	.	.	16gg#JJ)	]]	.
=110	=110	=110	=110	=110	=110	=110	=110	=110
8C#	.	8r	.	8r	.	(16dd#LL	p	vi
.	.	.	.	.	.	16eeJJ	.	.
8r	.	8C# 8E	.	8g#	.	16eLL	.	.
.	.	.	.	.	.	16ee	.	.
8C#	.	8r	.	8r	.	16ff#	.	.
.	.	.	.	.	.	16eeJJ)	.	.
=111	=111	=111	=111	=111	=111	=111	=111	=111
8r	<	8C#	<	8a	<	(16ee#XLL	<	ii6
.	.	.	.	.	.	16ff#	.	.
8AAAL	.	8r	.	8r	.	16gg#	.	.
.	.	.	.	.	.	16aa	.	.
8BBBJ	[[	8A	[[	8f#	[[	16cc#	.	V7
.	.	.	.	.	.	16dd#JJ)	[[	.
=112	=112	=112	=112	=112	=112	=112	=112	=112
8r	.	8G#	p	8e	p	(16dd#LL	p	I6\\
.	.	.	.	.	.	16ee	.	.
8EEL	p	8r	.	8r	.	16g#	.	I
.	.	.	.	.	.	16ee	.	.
8BJ	.	[8g#	.	8e	.	16g#	.	.
.	.	.	.	.	.	16gg#JJ)	.	.
=113	=113	=113	=113	=113	=113	=113	=113	=113
[4.B	< > ]]	(8g#L]	<	(8bL	<	16bb'LL	<	V[I
.	.	.	.	.	.	(16eJJ	.	.
.	.	8f#	[ >	8dd#	[ >	16bLL	.	V43
.	.	.	.	.	.	16aa	[ >	.
.	.	8eJ)	]]	8eeJ)	]]	16gg#	.	I
.	.	.	.	.	.	16bJJ)	]]	.
=114	=114	=114	=114	=114	=114	=114	=114	=114
!	!	!	!LO:DY:a	!	!	!	!	!
4.B_	] p	(8d#L	p p	(8ff#L	.	16ff#'LL	p	V
.	.	.	.	.	.	(16BJJ	.	.
.	.	8c#	.	8e	.	16bLL	.	.
.	.	.	.	.	.	16ff#	.	.
.	.	8d#J)	.	8f#J)	.	16gg#	.	.
.	.	.	.	.	.	16ff#JJ)	.	.
=115	=115	=115	=115	=115	=115	=115	=115	=115
4.B_	.	(8eL	.	(4b	.	16gg#'LL	.	I
.	.	.	.	.	.	(16BJJ	.	.
.	.	8d#	.	.	.	16bLL	.	V
.	.	.	.	.	.	16ff#	.	.
.	.	8c#J)	.	8a#X)	.	16b	.	viio6/V
.	.	.	.	.	.	16eeJJ)	.	.
=116	=116	=116	=116	=116	=116	=116	=116	=116
!LO:TX:b:i:t=cresc.	!	!LO:TX:b:i:t=cresc.	!	!LO:TX:b:i:t=cresc.	!	!LO:TX:b:i:t=cresc.	!	!
(8BL]	.	[4.B	.	(8bL	.	16dd#'LL	.	V]
.	.	.	.	.	.	(16d#JJ	.	.
8A#X	.	.	.	8cc#	.	16eLL	.	#viio(+2)/V
.	.	.	.	.	.	16eeJJ	.	.
8AJ	.	.	.	8dd#J	.	16f#LL	.	V2
.	.	.	.	.	.	(16ff#JJ)	.	.
=117	=117	=117	=117	=117	=117	=117	=117	=117
8G#L	.	(8BL]	.	8eeL	.	16bbLL)	.	I6
.	.	.	.	.	.	(16B	.	.
8F#	.	8D#	.	8a	.	16b)	.	V43
.	.	.	.	.	.	(16aa	.	.
8EJ	.	8EJ)	.	8g#J	.	16b)	.	I
.	.	.	.	.	.	(16gg#JJ	.	.
=118	=118	=118	=118	=118	=118	=118	=118	=118
8D#L	.	[4.B	.	8f#L	.	16b)	.	V6
.	.	.	.	.	.	(16ff#LL	.	.
8C#	.	.	.	8e	.	16bJJ)	.	.
.	.	.	.	.	.	(16eeLL	.	.
8D#J	.	.	.	8f#J	.	16bJJ)	.	.
.	.	.	.	.	.	(16ff#	.	.
=119	=119	=119	=119	=119	=119	=119	=119	=119
8EL	.	(4B]	.	8g#L	.	16b)	.	I
.	.	.	.	.	.	(16gg#LL	.	.
8D#	.	.	.	8f#	.	16bJJ)	.	V6
.	.	.	.	.	.	(16ff#LL	.	.
8C#J	.	8c#)	.	8eJ	.	16bJJ)	.	#viio6(+2)/V
.	.	.	.	.	.	(16aa#X	.	.
=120	=120	=120	=120	=120	=120	=120	=120	=120
8BBL	.	(8F#L	.	8d#L	.	16bb)	.	V
.	.	.	.	.	.	16bLL	.	.
8AA#X	.	8E	.	8e	.	16cc#JJ	.	#viio6/V
.	.	.	.	.	.	16ccc#LL	.	.
8AAJ)	.	8F#J)	.	8f#J)	.	16dd#JJ	.	V2
.	.	.	.	.	.	16ddd#	.	.
=121	=121	=121	=121	=121	=121	=121	=121	=121
!	!LO:DY:a	!	!LO:DY:a	!	!	!	!	!
(8EEL	p p <	(8BBL	p <	16A'LL	<	(8eeeL	p <	I
.	.	.	.	(16g#	.	.	.	.
8GG#	[ >	8G#	[ >	16ee	[ >	8gg#	[ >	I6
.	.	.	.	16dd#	.	.	.	.
8EEJ)	]]	8eJ)	]]	16ee	.	16bbJk)	.	I
.	.	.	.	16g#JJ)	]]	16r	]]	.
=122	=122	=122	=122	=122	=122	=122	=122	=122
(8GG#L	.	(8c#L	.	16g#'LL	.	4.ee	.	vi64
.	.	.	.	(16E	.	.	.	.
8CC#	.	8C#	.	16e	.	.	.	.
.	.	.	.	16d#	.	.	.	.
8GG#J)	.	8EJ)	.	16e	.	.	.	.
.	.	.	.	16G#JJ)	.	.	.	.
=123	=123	=123	=123	=123	=123	=123	=123	=123
(8AAAL	<	(8AL	<	(16cc#LL	<	(16ff#LL	<	ii6
.	.	.	.	16b	.	16gg#J	.	.
8FF#	.	8C#	.	16a	.	8aa	.	ii
.	.	.	.	16g#	.	.	.	.
8AAAJ)	[[	8AJ)	[[	16f#	.	16ccc#Jk)	.	ii6
.	.	.	.	16AJJ)	[[	16r	[[	.
=124	=124	=124	=124	=124	=124	=124	=124	=124
!	!LO:DY:a	!	!	!	!	!	!	!
(8FF#L	p	(8AL	.	(16aLL	p	(8ee	p	V7(4)
.	.	.	.	16f#	.	.	.	.
8BBB	.	8f#	.	16a	.	4dd#)	.	V7
.	.	.	.	16g#	.	.	.	.
8FF#J)	.	8AJ)	.	16a	.	.	.	.
.	.	.	.	16d#JJ)	.	.	.	.
=125	=125	=125	=125	=125	=125	=125	=125	=125
(8EEL	<	(8G#L	<	16g#'LL	<	(8bbL	<	I
.	.	.	.	(16E	.	.	.	.
8GG#	[ >	8E	[ >	16e	[ >	8gg#	[ >	I6
.	.	.	.	16d#	.	.	.	.
8EEJ)	]]	8G#J)	]]	16e	.	16bbJk)	.	I
.	.	.	.	16G#JJ)	]]	16r	]]	.
=126	=126	=126	=126	=126	=126	=126	=126	=126
(8GG#L	p	(8G#L	p	16e'LL	p	4.ee	p	vi64
.	.	.	.	(16E	.	.	.	.
8CC#	.	8C#	.	16g#	.	.	.	.
.	.	.	.	16f#	.	.	.	.
8GG#J)	.	8c#J)	.	16e	.	.	.	.
.	.	.	.	16c#JJ)	.	.	.	.
=127	=127	=127	=127	=127	=127	=127	=127	=127
(8AAAL	<	(8AL	<	(16cc#LL	<	(16ff#LL	<	ii6
.	.	.	.	16b	.	16gg#J	.	.
8FF#	.	8C#	.	16a	.	8aa	.	ii
.	.	.	.	16g#	.	.	.	.
8BBBJ)	[[	8D#J)	[[	16f#	.	16dd#Jk)	.	V7
.	.	.	.	16AJJ)	[[	16r	[[	.
=128	=128	=128	=128	=128	=128	=128	=128	=128
(8BBL	p	(8F#L	p	(16d#LL	p	(8dd#	p	.
.	.	.	.	16A	.	.	.	.
8BBB	.	8E	.	16G#	.	4ee)	.	I\\
.	.	.	.	16A	.	.	.	.
8EEJ)	.	8BBJ)	.	16G#	.	.	.	.
.	.	.	.	16eJJ)	.	.	.	.
=129	=129	=129	=129	=129	=129	=129	=129	=129
(8d#	p	4.r	.	4.r	.	4.r	.	I
4e)	.	.	.	.	.	.	.	.
=130	=130	=130	=130	=130	=130	=130	=130	=130
4.r	.	(16f#LL	<	4.r	.	4.r	.	viio
.	.	16g#J	.	.	.	.	.	.
.	.	8a	.	.	.	.	.	.
.	.	16d#Jk)	.	.	.	.	.	.
.	.	16r	[[	.	.	.	.	.
=131	=131	=131	=131	=131	=131	=131	=131	=131
4.r	.	4.r	.	4.ee	p	4.r	.	I
=132	=132	=132	=132	=132	=132	=132	=132	=132
4.r	.	4.r	.	4.r	.	(8bbL	<	.
.	.	.	.	.	.	8gg#	>	.
.	.	.	.	.	.	16bbJk)	.	.
.	.	.	.	.	.	16r	] ]]	.
=133	=133	=133	=133	=133	=133	=133	=133	=133
4.r	.	4.r	.	(8bL	<	4.r	.	.
.	.	.	.	8g#	>	.	.	.
.	.	.	.	16bJk)	.	.	.	.
.	.	.	.	16r	] ]]	.	.	.
=134	=134	=134	=134	=134	=134	=134	=134	=134
4.r	.	4.r	.	4.r	.	4.e	p	.
=135	=135	=135	=135	=135	=135	=135	=135	=135
4.r	.	(16F#LL	<	4.r	.	4.r	.	ii
.	.	16G#J	.	.	.	.	.	.
.	.	8A	[ >	.	.	.	.	.
.	.	16c#Jk)	.	.	.	.	.	.
.	.	16r	]	.	.	.	.	.
=136	=136	=136	=136	=136	=136	=136	=136	=136
(8E	p	4.r	.	4.r	.	4.r	.	V
4D#	.	.	.	.	.	.	.	.
=137	=137	=137	=137	=137	=137	=137	=137	=137
8DL	<	(16F#LL	<	4.r	.	4.r	.	I
.	.	16G#J	.	.	.	.	.	.
8C#	.	8A	.	.	.	.	.	.
8AAJ	[[	16c#Jk)	.	.	.	.	.	.
.	.	16r	[[	.	.	.	.	.
=138	=138	=138	=138	=138	=138	=138	=138	=138
8GG#L	p	(8EL	p	4.r	.	4.r	.	iv6
8FF#	.	8D#	.	.	.	.	.	.
[8FFXJ)	.	[8DJ)	.	.	.	.	.	.
=139	=139	=139	=139	=139	=139	=139	=139	=139
(8FFL]	<	(8DL]	<	(16BLL	<	4.r	.	V7
.	.	.	.	16c#J	.	.	.	.
8EE	.	16BBL	.	8d	.	.	.	.
.	.	16C#	.	.	.	.	.	.
8EEJ)	[[	16DJJ)	.	16f#Jk)	.	.	.	.
.	.	16r	[[	16r	[[	.	.	.
=140	=140	=140	=140	=140	=140	=140	=140	=140
!	!	!	!LO:DY:a	!	!	!	!	!
8EEL	p	(8C#	p p	(8A	.	(16bLL	<	V(64)
.	.	.	.	.	.	16cc#J	.	.
8EE	.	4BB;)	.	4G#;)	.	8dd	.	V7
8EE;J	.	.	.	.	.	16eeJk)	.	.
.	.	.	.	.	.	16r;	[[	.
=141	=141	=141	=141	=141	=141	=141	=141	=141
4.r	.	(8EL	<	(8eL	<	4.r	.	I
.	.	8C#	[ >	8c#	[ >	.	.	.
.	.	16EJk)	.	16eJk)	.	.	.	.
.	.	16r	]	16r	]	.	.	.
=142	=142	=142	=142	=142	=142	=142	=142	=142
4.AAA 4.AA	p	4.r	.	4.r	.	(8eeL	p <	.
.	.	.	.	.	.	8cc#	>	.
.	.	.	.	.	.	16eeJk)	.	.
.	.	.	.	.	.	16r	] ]]	.
=143	=143	=143	=143	=143	=143	=143	=143	=143
(8EEL	<	(16BBLL	p <	(8bL	p <	(8bbL	<	I.I
.	.	16G#JJ	.	.	.	.	.	.
8GG#	[ >	16eLL	[ >	8g#	[ >	8gg#	[ >	I6
.	.	16d#	.	.	.	.	.	.
8EEJ)	]]	16e	.	16bJk)	.	16bbJk)	.	I
.	.	16G#JJ)	]]	16r	]]	16r	]	.
=144	=144	=144	=144	=144	=144	=144	=144	=144
!	!LO:DY:a	!	!	!	!	!	!	!
(8GG#L	p p	(16C#LL	.	4.e	p	4.ee	p	vi64
.	.	16G#JJ	.	.	.	.	.	.
8CC#	.	16eLL	.	.	.	.	.	.
.	.	16D#	.	.	.	.	.	.
8GG#J)	.	16E	.	.	.	.	.	.
.	.	16c#JJ)	.	.	.	.	.	.
=145	=145	=145	=145	=145	=145	=145	=145	=145
(8AAAL	<	(16AALL	<	(16f#LL	<	(16ff#LL	<	ii6
.	.	16c#	.	16g#J	.	16gg#J	.	.
8FF#	.	16B	.	8a	.	8aa	.	ii
.	.	16A	.	.	.	.	.	.
8BBBJ)	[[	16A	.	16d#Jk)	.	16dd#Jk)	.	V7
.	.	16F#JJ)	[[	16r	[[	16r	[[	.
=146	=146	=146	=146	=146	=146	=146	=146	=146
(8BBL	p	(16F#LL	p	(8d#	p	(8dd#	p	.
.	.	16A	.	.	.	.	.	.
8BBB	.	16G#	.	4e)	.	4ee)	.	I\\
.	.	16F#	.	.	.	.	.	.
8EEJ)	.	16G#	.	.	.	.	.	.
.	.	16EJJ)	.	.	.	.	.	.
=147	=147	=147	=147	=147	=147	=147	=147	=147
!LO:TX:b:i:t=cresc.	!	!LO:TX:b:i:t=cresc.	!	!LO:TX:b:i:t=cresc.	!	!LO:TX:b:i:t=cresc.	!	!
(8BBBL	.	(16F#LL	.	(16aLL	.	(16aaLL	.	V7(9)
.	.	16e	.	16bJ	.	16bbJ	.	.
8FF#	.	16d#	.	8cc#	.	8ccc#	.	.
.	.	16c#	.	.	.	.	.	.
8BBBJ)	.	16d#	.	16f#Jk)	.	16ff#Jk)	.	V7
.	.	16AJJ)	.	16r	.	16r	.	.
=148	=148	=148	=148	=148	=148	=148	=148	=148
!	!LO:DY:a	!	!	!	!	!	!	!
(8GG#L	p p	(16ELL	.	(8f#	p	(8ff#	p	I6(9)
.	.	16f#	.	.	.	.	.	.
8BBB	.	16e	.	4g#)	.	4gg#)	.	V(64)
.	.	16d#	.	.	.	.	.	.
8GG#J)	.	16e	.	.	.	.	.	.
.	.	16EJJ)	.	.	.	.	.	.
=149	=149	=149	=149	=149	=149	=149	=149	=149
!LO:TX:b:i:t=cresc.	!	!LO:TX:b:i:t=cresc.	!	!LO:TX:b:i:t=cresc.	!	!LO:TX:b:i:t=cresc.	!	!
(8BBBL	.	(16F#LL	.	(16aLL	.	(16aaLL	.	V7(9)
.	.	16e	.	16bJ	.	16bbJ	.	.
8FF#	.	16d#	.	8cc#	.	8ccc#	.	.
.	.	16c#	.	.	.	.	.	.
8BBBJ)	.	16B	.	16dd#Jk)	.	16ddd#Jk)	.	V7
.	.	16AJJ)	.	16r	.	16r	.	.
=150	=150	=150	=150	=150	=150	=150	=150	=150
!	!LO:DY:a	!	!	!	!	!	!	!
(8BBL	f f	(16ALL	.	(8dd#	f	(8ddd#	f	.
.	.	16a	.	.	.	.	.	.
8BBB	.	16g#	.	4ee)	.	4eee)	.	I\\
.	.	16f#J	.	.	.	.	.	.
8EEJ)	.	8g#J)	.	.	.	.	.	.
==	==	==	==	==	==	==	==	==
*-	*-	*-	*-	*-	*-	*-	*-	*-
!!!system-decoration: [(s1,s2,s3,s4)]
!!!YEM: <font size="10"/>Copyright 2003 by Robert L. Jenks
